X: 237
T:Master Frank Romily
B:William Marshall Volume 2nd Of A Collection Of Scottish Melodies (1845)
C:William Marshall
L:1/8
M:C
O:Scotland
R:Reel
Z:Clark Bernst + Richard Robinson
%%Page:11 - 2
F:http://richardrobinson.tunebook.org.uk/tune/4080
%%TBL:{"version":1,"type":"tune","id":"4080"}
K:F
%%staves {1 2}
V:1
cAFA cecA | dfcA G/G/G G2 | cAFA cbag | f<dc>!trill!A F/F/F F2 | 
cAFA cecA | dfcA G/G/G G2 | cAFA cbag | f<dc>!trill!A F/F/F F2 |]
~f>g a<g fdcf | dfca g/g/g g2 | \
f>g a<g fdcf | d<f!trill!c>A F/F/F F2 | 
~f>g a<g fdcf | dfca g/g/g g2 | \
f>g a<g bgec | d<fc>!trill!A F/F/F F2 |]
V:2 middle=d clef=bass
L:1/4
[Ff] [Ff] [Ff] [Ff] | [Bb] [Ff] [cc'] [cc'] | [Ff] [Ff] [Ee] [Ff] | [Bb] [cc'] [Ff] [Ff] | \
[Ff] [Ff] [Ff] [Ff] | [Bb] [Ff] [cc'] [cc'] | [Ff] [Ff] [Ee] [Ff] | [Bb] [cc'] [Ff] [Ff] |] \
[fac'] [fac'] [fbd'] [fac'] | [fbd'] [fac'] [cc'] [cc'] | \
[fac'] [fac'] [fb]   [fac'] | [fbd'] [fac'] [fac'] [fac'] | \
[fac'] [fac'] [fbd'] [fac'] | [fbd'] [fac'] [cc'] [cc'] | \
[fac'] [fac'] [egc'] [gbc'] | [fbd'] [fac'] [fac'] [fac'] |]

